packages/katcn/src/icons/svg/cursor-solid.svg

<svg width="24" height="25" viewBox="0 0 24 25" fill="none" xmlns="http://www.w3.org/2000/svg">
<path d="M21.3947 17.1701L16.1484 11.9039L19.7804 9.67594C21.1929 8.76448 20.7893 6.63775 19.1751 6.23266L4.24339 2.99192C2.93182 2.78938 1.82203 3.90338 2.02381 5.21993L5.25229 20.2083C5.65585 21.8287 7.77453 22.2338 8.68254 20.816L10.9021 17.1701L16.1484 22.4363C16.8546 23.1452 18.0653 23.1452 18.7715 22.4363L21.3947 19.8032C22.2018 19.0943 22.2018 17.9803 21.3947 17.1701Z" fill="black"/>
</svg>

<svg xmlns="http://www.w3.org/2000/svg" fill="none" viewBox="0 0 24 25"><path fill="#000" d="m21.395 17.17-5.247-5.266 3.632-2.228c1.413-.912 1.01-3.038-.605-3.443L4.243 2.992a1.94 1.94 0 0 0-2.22 2.228l3.23 14.988c.403 1.62 2.522 2.026 3.43.608l2.22-3.646 5.245 5.266c.707.71 1.917.71 2.624 0l2.623-2.633c.807-.709.807-1.823 0-2.633"/></svg>
